X:1
T:37
T:Hugo Distler
T:Martin Luther (1524) after Ps. 130
T:37.  In Deepest Need I Cry to You Aus tiefer Not schrei' ich zu dir Day of Atonement
T:Bärenteiter
T:Bärenteiter
T:Bärenteiter
T:Bärenteiter
T:Bärenteiter
C:Hugo Distler
Z:Martin Luther (1524)
Z:Bärenteiter
%%score [ 1 2 3 ]
L:1/8
Q:1/4=72
M:4/4
K:C
V:1 treble nm="Sop."
V:2 treble nm="Alto"
V:3 bass nm="Bar."
V:1
 z8 | z8 | z4 B4 | c4 B2 (d2- | dB) c2 (B3 A | FA B3 A Be | BA B3 A B2) | B8 | z8 | z4 B4 | %10
w: ||1.  ...Lord|God, O hear|_ _ my plead- *|||ing:||...and|
w: ||2.  ...to|earn our sins'|_ _ for- give- *|||ness;||...e'en|
w: ||3.  ...and|not in my|_ _ own mer- *|||it;||...and|
w: ||4.  ...and|yet a- gain|_ _ to- mor- *|||row,||...de-|
w: ||5.  ...with|God is grace|_ _ a- bun- *|||dant;||...though|
 c4 B2 (d2- | dB) c2 (B3 A | FA B3 A Be | BA B3 A B2) | B8 || A4 G2 c2 |[M:2/4] B2 A2 | %17
w: hear my sad|_ _ en- treat- *|||ing.|For if You|should con-|
w: for the best|_ _ a- mong _|_ _ _ _ _ _||us.|Be- fore You|no one|
w: trust His good-|* * ness ev- *|||er,|as pro- mised|in His|
w: spair, nor live|_ _ in sor- *|||row.|So, Is- ra-|el, seek|
w: great our wrongs|_ _ in judge- *|||ment.|He would our|lov- ing|
[M:6/4] (Bc d3 B2 A B2) B2 |[M:3/4] !breath!c2 c4 |[M:4/4] B2 c2 d4 | G2 (B4 c2- | cB G2 A2) B2 | %22
w: sid- * * * * * er|now the|sins and e-|vils that _|_ _ _ _ a-|
w: vaunts _ _ _ _ _ him-|self; for|You to fear,|the on- *|* * * * ly|
w: ho- * * * * * ly|Word; He|is my Com-|fort- er _|_ _ _ _ and|
w: right- * * * * * eous-|ness, being|born of God's|own gra- *|* * * * tious-|
w: shep- * * * * * herd|be and|Is- ra- el|in love _|_ _ _ _ set|
[M:2/4] G4 |[M:4/4] z4 z2 G2 | c2 B2 A2 E2 | (F2 G4 A2- | AG E4 ^F2) | ^G8 |] %28
w: bound,|who,|Lord, could stand be-|fore _ _|_ _ _ _|You?|
w: wealth,|to|live in grace and|mer- * *||cy.|
w: Lord,|for|whom I wait for-|ev- * *||er.|
w: ness,|and|wait up- on His|plea- * *||sure.|
w: free|from|all its sins and|sor- * *||rows.|
V:2
 z8 | z8 | z8 | E4 F4 | E2 (G3 E) D2 | (E3 F GFED | E3 D E2 A2) | ^G8 | z8 | z8 | E4 F4 | %11
w: |||1.  ...Lord God,|O hear _ my|plead- * * * * *||ing:|||...and hear|
w: |||2.  ...to earn|our sins' _ for-|give- * * * * *||ness;|||...e'en for|
w: |||3.  ...and not|in my _ own|mer- * * * * *||it;|||...and trust|
w: |||4.  ...and yet|a- gain _ to-|mor- * * * * *||row,|||...de- spair,|
w: |||5.  ...with God|is grace _ a-|bun- * * * * *||dant;|||though great|
 E2 (G3 E) D2 | (E3 F GFED | E3 D E2 A2) | ^G8 || E4 E2 E2 |[M:2/4] =G2 E2 | %17
w: my sad _ en-|treat- * * * * *||ing.|For if You|should con-|
w: the best _ a-|mong _ _ _ _ _|_ _ _ _|us.|Be- fore You|no one|
w: His good- * ness|ev- * * * * *||er,|as pro- mised|in His|
w: nor live _ in|sor- * * * * *||row.|So, Is- ra-|el, seek|
w: our wrongs _ in|judge- * * * * *||ment.|He would our|lov- ing|
[M:6/4] (G3 ^F E2 DC D2) F2 |[M:3/4] !breath!E2 A4 |[M:4/4] G2 A2 ^F4 | E2 (D3 E G2- | %21
w: sid- * * * * * er|now the|sins and e-|vils that _ _|
w: vaunts _ _ _ _ _ him-|self; for|You to fear,|the on- * *|
w: ho- * * * * * ly|Word; He|is my Com-|fort- er _ _|
w: right- * * * * * eous-|ness, being|born of God's|own gra- * *|
w: shep- * * * * * herd|be and|Is- ra- el|in love _ _|
 G2 ^F3 E) (D^C) |[M:2/4] B,4 |[M:4/4] z2 D2 =F2 E2- | E2 D2 (F2 E2) | D2 B,2 (E3 D | C2 B,2 A,4) | %27
w: _ _ _ a- *|bound,|who, Lord, could|_ stand, could _|stand be- fore _|_ _ _|
w: * * * ly _|wealth,|to live in|_ grace, in _|grace and mer- *||
w: _ _ _ and _|Lord,|for whom I|_ wait, I _|wait for- ev- *||
w: * * * tious- *|ness,|and wait, and|_ wait up- *|on His plea- *||
w: _ _ _ set _|free|from all its|_ sins, its _|sins and sor- *||
 B,8 |] %28
w: You?|
w: cy.|
w: er.|
w: sure.|
w: rows.|
V:3
 B,2 E,4 B,2 | (C3 B,2) B, G,2- | G,2 A,2 B,4- | B,4 z4 | z4 B,4 | C2 D2 C2 A,2 | (G,4 F,4) | %7
w: 1.  In deep- est|need _ I cry|_ to You,|_|Lord|God, O hear my|plead- *|
w: 2.  No works can|serve, _ but grace|_ a- lone|_|to|earn our sins' for-|give- *|
w: 3.  There- fore I|hope _ in God's|_ good grace|_|and|not in my own|mer- *|
w: 4.  Should it pro-|tect _ me through|_ the night|_|and|yet a- gain to-|mor- *|
w: 5.  Though here on|earth _ our sins|_ a- bound,|_|with|God is grace a-|bun- *|
 !breath!E,2 B,2 E,2 B,2 | (C3 B,2) B, G,2- | G,2 A,2 B,4- | B,4 z4 | z4 B,4 | C2 D2 C2 A,2 | %13
w: ing: in- cline to|me _ Your gra-|* cious ear|_|and|hear my sad en-|
w: ness; our deeds in|vain _ seek to|_ a- tone,|_|e'en|for the best a-|
w: it; I rest my|heart _ in His|_ em- brace|_|and|trust His good- ness|
w: row, my heart will|nev- * er doubt|_ God's might,|_|de-|spair, nor live in|
w: dant; His hand to|help _ us knows|_ no bounds,|_|though|great our wrongs in|
 (G,4 F,4) | E,8 || z4 z2 A,2 |[M:2/4] G,2 C2 |[M:6/4] B,3 A, (B,C D3 C) B,2 | %18
w: treat- *|ing.|For|if You|should con- sid- * * * er|
w: mong _|us.|Be-|fore You|no one vaunts _ _ _ him-|
w: ev- *|er,|as|pro- mised|in His ho- * * * ly|
w: sor- *|row.|So,|Is- ra-|el, seek right- * * * eous-|
w: judge- *|ment.|He|would our|lov- ing shep- * * * herd|
[M:3/4] !breath!A,2 =F,4 |[M:4/4] G,2 E,2 D,4 | C,2 (G,4 E,2- | E,2 D,C,) D,4 | %22
w: now the|sins and e-|vils that _|_ _ _ a-|
w: self; for|You to fear,|the on- *|* * * ly|
w: Word; He|is my Com-|fort- er _|_ _ _ and|
w: ness, being|born of God's|own gra- *|* * * tious-|
w: be and|Is- ra- el|in love _|_ _ _ set|
[M:2/4] !breath!E,2 G,2 |[M:4/4] =C2 B,2 A,2 E,2 | (F,6 C,2 | D,8 | A,,8) | E,8 |] %28
w: bound, who,|Lord, could stand be-|fore _|_||You?|
w: wealth, to|live in grace and|mer- *|||cy.|
w: Lord, for|whom I wait for-|ev- *|||er.|
w: ness, and|wait up- on His|plea- *|||sure.|
w: free from|all its sins and|sor- *|||rows.|

